packages/blockchain-info-components/src/Images/img/explorer-logo.svg

<svg fill="none" height="48" viewBox="0 0 48 48" width="48" xmlns="http://www.w3.org/2000/svg" xmlns:xlink="http://www.w3.org/1999/xlink"><clipPath id="a"><path d="m9 8.99976h30v30h-30z"/></clipPath><circle cx="24" cy="24" fill="#fff2e5" r="24"/><g clip-path="url(#a)"><path d="m33.5899 15.1232 4.081 11.7266-13.6707 2.775-13.6706-2.775 4.0809-11.7266c.6899-1.9824 2.5589-3.3109 4.6578-3.3109 2.7238 0 4.9319 2.208 4.9319 4.9318 0-2.7238 2.2081-4.9318 4.9319-4.9318 2.0989 0 3.9679 1.3285 4.6578 3.3109z" fill="#f5a250" fill-opacity=".36"/><g stroke="#f5a250" stroke-width="2"><path d="m24.0002 29.6248 13.6707-2.775-4.081-11.7266c-.6899-1.9824-2.5589-3.3109-4.6578-3.3109-2.7238 0-4.9319 2.208-4.9319 4.9318m0 12.8807v-12.8807zm0 0-13.6706-2.775 4.0809-11.7266c.6899-1.9824 2.5589-3.3109 4.6578-3.3109 2.7238 0 4.9319 2.208 4.9319 4.9318z" stroke-linecap="round" stroke-linejoin="round"/><path d="m16.9688 36.1873c3.8832 0 7.0312-3.148 7.0312-7.0313 0-3.8832-3.148-7.0312-7.0312-7.0312-3.8833 0-7.0313 3.148-7.0313 7.0312 0 3.8833 3.148 7.0313 7.0313 7.0313z" fill="#fff"/><path d="m31.0312 36.1873c3.8833 0 7.0313-3.148 7.0313-7.0313 0-3.8832-3.148-7.0312-7.0313-7.0312-3.8832 0-7.0312 3.148-7.0312 7.0312 0 3.8833 3.148 7.0313 7.0312 7.0313z" fill="#fff"/></g><path d="m19.3125 29.156c0 .5178.4197.9375.9375.9375s.9375-.4197.9375-.9375zm-2.3437-4.2187c-.5178 0-.9376.4197-.9376.9375 0 .5177.4198.9375.9376.9375zm0 1.875c1.2944 0 2.3437 1.0493 2.3437 2.3437h1.875c0-2.33-1.8888-4.2187-4.2187-4.2187z" fill="#f5a250"/><path d="m33.375 29.156c0 .5178.4197.9375.9375.9375s.9375-.4197.9375-.9375zm-2.3438-4.2187c-.5177 0-.9374.4197-.9374.9375 0 .5177.4197.9375.9374.9375zm0 1.875c1.2945 0 2.3438 1.0493 2.3438 2.3437h1.875c0-2.33-1.8888-4.2187-4.2188-4.2187z" fill="#f5a250"/></g></svg>

<svg width="48" height="48" viewBox="0 0 48 48" fill="none" xmlns="http://www.w3.org/2000/svg">
<circle cx="24" cy="24" r="24" fill="#FFF2E5"/>
<g clip-path="url(#clip0)">
<path d="M33.5899 15.1232L37.6709 26.8498L24.0002 29.6248L10.3296 26.8498L14.4105 15.1232C15.1004 13.1408 16.9694 11.8123 19.0683 11.8123C21.7921 11.8123 24.0002 14.0203 24.0002 16.7441C24.0002 14.0203 26.2083 11.8123 28.9321 11.8123C31.031 11.8123 32.9 13.1408 33.5899 15.1232Z" fill="#F5A250" fill-opacity="0.36"/>
<path d="M24.0002 29.6248L37.6709 26.8498L33.5899 15.1232C32.9 13.1408 31.031 11.8123 28.9321 11.8123C26.2083 11.8123 24.0002 14.0203 24.0002 16.7441M24.0002 29.6248V16.7441V29.6248ZM24.0002 29.6248L10.3296 26.8498L14.4105 15.1232C15.1004 13.1408 16.9694 11.8123 19.0683 11.8123C21.7921 11.8123 24.0002 14.0203 24.0002 16.7441V29.6248Z" stroke="#F5A250" stroke-width="2" stroke-linecap="round" stroke-linejoin="round"/>
<path d="M16.9688 36.1873C20.852 36.1873 24 33.0393 24 29.156C24 25.2728 20.852 22.1248 16.9688 22.1248C13.0855 22.1248 9.9375 25.2728 9.9375 29.156C9.9375 33.0393 13.0855 36.1873 16.9688 36.1873Z" fill="white" stroke="#F5A250" stroke-width="2"/>
<path d="M31.0312 36.1873C34.9145 36.1873 38.0625 33.0393 38.0625 29.156C38.0625 25.2728 34.9145 22.1248 31.0312 22.1248C27.148 22.1248 24 25.2728 24 29.156C24 33.0393 27.148 36.1873 31.0312 36.1873Z" fill="white" stroke="#F5A250" stroke-width="2"/>
<path d="M19.3125 29.156C19.3125 29.6738 19.7322 30.0935 20.25 30.0935C20.7678 30.0935 21.1875 29.6738 21.1875 29.156H19.3125ZM16.9688 24.9373C16.451 24.9373 16.0312 25.357 16.0312 25.8748C16.0312 26.3925 16.451 26.8123 16.9688 26.8123V24.9373ZM16.9688 26.8123C18.2632 26.8123 19.3125 27.8616 19.3125 29.156H21.1875C21.1875 26.826 19.2987 24.9373 16.9688 24.9373V26.8123Z" fill="#F5A250"/>
<path d="M33.375 29.156C33.375 29.6738 33.7947 30.0935 34.3125 30.0935C34.8303 30.0935 35.25 29.6738 35.25 29.156H33.375ZM31.0312 24.9373C30.5135 24.9373 30.0938 25.357 30.0938 25.8748C30.0938 26.3925 30.5135 26.8123 31.0312 26.8123V24.9373ZM31.0312 26.8123C32.3257 26.8123 33.375 27.8616 33.375 29.156H35.25C35.25 26.826 33.3612 24.9373 31.0312 24.9373V26.8123Z" fill="#F5A250"/>
</g>
<defs>
<clipPath id="clip0">
<rect width="30" height="30" fill="white" transform="translate(9 8.99976)"/>
</clipPath>
</defs>
</svg>
